X: 1
T: the Monaghan Jig
C: Trad. arr. Christine Martin
R: jig
Z: 2013 John Chambers <jc:trillian.mit.edu>
M: 6/8
L: 1/8
K: Edor
|:\
"Em"BGE F2E | BGE "D"FGA | "Em"BGE F2E | "D"AFD FGA |\
"Em"BGE F2E | BGE "D"FGA | "Bm"dcB "G"ABG | "D"FDF AFD :|
|:\
"Em"EGB efg | fed edB | "D"DFA dAG | FDF AFD |\
"Em"EGB efg | fed edB | "Bm"dcB "G"ABG | "D"FDF AFD :|
|:\
"Em"g2e efe | geg bge | "Em"g2e efg | "D"fdf afd |\
"Em"g2e efe | geg bge | "Bm"d2B "G"ABG | "D"FDF AFD :|
